!!!!SEGMENT: pl-kk--kk-i-7--087_anonim--alleluia-ave-maria.krn
!!!cenid: 16xx:926
!!!COM: Anonim
!!!COM-rismID: pe30004985
!!!CDT:
!!!CNT:
!!!OTL: Alleluia Ave Maria
!!!PDT:
!!!AGN: Sacred
!!!SMS-siglum: PL-Kk
!!!SMS-shelfmark: Kk.I.7
!!!SMS-shelfwork: 087 W
!!!SMS-variant:
!!!SMS-altvar:
!!!NIFC-rismSourceID: 300258077
!!!NIFC-rismChildID: 300258164
!!!NIFC-islandoraID: pl-kk:1956
!!!URL-pdf-islandora: https://repozytorium.nifc.pl/islandora/object/pl-kk%3A1956/datastream/PDF/view
!!!URL-scan: https://polish.musicsources.pl/pl/lokalizacje/galeria/rekopisy/6140 @EN{Scan on Polish Music Sources Website} @PL{Skany w portalu Dziedzictwo Muzyki Polskiej w otwartym dostępie}
!!!ONB-nifc: UWAGA: C (skan 0073 , s.28-29), A (brak), T (0235, s.27), B (0323, s.28). Następny utwór: Laetentur caeli
!!!AIN: 1 alto 1 bass 1 soprn 1 tenor
!!!key:
**kern	**text	**kern	**text	**kern	**kern	**text
*part4	*part4	*part3	*part3	*part2	*part1	*part1
*staff4	*staff4	*staff3	*staff3	*staff2	*staff1	*staff1
*Ibass	*	*Itenor	*	*Ialto	*Isoprn	*
*I"BASSVS.	*	*I"TENOR.	*	*I"ALTVS.	*I"CANTVS.	*
*I'B	*	*I'T	*	*I'A	*I'S	*
*clefF4	*	*clefC4	*	*clefC3	*clefC1	*
*k[bn]	*	*k[bn]	*	*k[bn]	*k[bn]	*
*C:	*	*C:	*	*C:	*C:	*
*M2/1	*	*M2/1	*	*M2/1	*M2/1	*
*met(C|)	*	*met(C|)	*	*met(C|)	*met(C|)	*
*>[A,B,A]	*	*>[A,B,A]	*	*>[A,B,A]	*>[A,B,A]	*
=1-	=1-	=1-	=1-	=1-	=1-	=1-
*>A	*	*>A	*	*>A	*>A	*
!LO:TX:a:t=P:problem=znaki BBn Bn	!	!	!	!LO:TX:a:t=P:problem=brak głosu w źródle	!LO:TX:t=P:problem=kreska pseudotaktowa	!
00r	.	1G	Al-	0ryy	1r	.
*	*	*lig	*	*	*	*
.	.	1E	-le-	.	1cc	Al-
=2-	=2-	=2-	=2-	=2-	=2-	=2-
.	.	1F	.	0ryy	1a	-le-
*	*	*Xlig	*	*	*	*
*	*	*lig	*	*	*	*
.	.	1G	.	.	1bn	.
=3-	=3-	=3-	=3-	=3-	=3-	=3-
!LO:TX:t=P:problem=kreska pseudotaktowa	!	!	!	!	!	!
1r	.	1A	.	0ryy	1cc	.
*	*	*Xlig	*	*	*2\right	*
!LO:TX:t=P:problem=kreska pseudotaktowa	!	!	!	!	!	!
1G	Al-	1Bn	.	.	2.b\	.
.	.	.	.	.	4a\	.
=4-	=4-	=4-	=4-	=4-	=4-	=4-
*2\right	*	*lig	*	*	*	*
2E\	-le-	1c	-lu-	0ryy	2g\	.
!LO:TX:t=P:problem=kreska pseudotaktowa	!	!	!	!	!	!
2F\	.	.	.	.	2a\	.
2G\	.	1B	.	.	2b\	.
!LO:TX:t=P:problem=kreska pseudotaktowa	!	!	!	!	!	!
2BBn/	.	.	.	.	2dd\	.
*	*	*Xlig	*	*	*	*
=5-	=5-	=5-	=5-	=5-	=5-	=5-
2C/	.	1A	.	0ryy	1cc	.
2AA/	.	.	.	.	.	.
1D	-lu-	[1Gl;	-ia	.	1a	-lu-
=6-	=6-	=6-	=6-	=6-	=6-	=6-
!LO:TX:t=P:problem=kreska pseudotaktowa	!	!	!	!	!	!
1GG;	-ia	0G]	.	0ryy	0bl;	-ia.
1ryy	.	.	.	.	.	.
!	!	!	!	!	!LO:LB:g=original	!
=7||	=7||	=7||	=7||	=7||	=7||	=7||
*>B	*	*>B	*	*>B	*>B	*
*M2/1	*	*M2/1	*	*	*M2/1	*
*met(C|)	*	*met(C|)	*	*	*met(C|)	*
!	!	!	!	!	!LO:TX:t=P:problem=kreska pseudotaktowa	!
00r	.	1G	A-	0ryy	1ree	.
*	*	*lig	*	*	*	*
.	.	1E	-ve	.	1cc	A-
=8-	=8-	=8-	=8-	=8-	=8-	=8-
!	!	!	!	!	!LO:TX:t=P:problem=kreska pseudotaktowa	!
.	.	1F	.	0ryy	1a	-ve
*	*	*Xlig	*	*	*	*
!	!	!LO:TX:t=P:problem=kreska pseudotaktowa	!	!	!	!
.	.	1G	.	.	4b\	Ma-
.	.	.	.	.	4g\	.
.	.	.	.	.	1cc\	.
=9-	=9-	=9-	=9-	=9-	=9-	=9-
!LO:TX:t=P:problem=kreska pseudotaktowa	!	!	!	!	!	!
00r	.	1G	Ma-	0ryy	.	.
.	.	.	.	.	2b\	.
!	!	!	!	!	!LO:TX:t=P:problem=kreska pseudotaktowa	!
.	.	1A	-ri-	.	1cc	.
=10-	=10-	=10-	=10-	=10-	=10-	=10-
*	*	*lig	*	*	*	*
.	.	1Bn	.	0ryy	4b\	.
.	.	.	.	.	4a\	.
.	.	.	.	.	2g/	.
.	.	1A	.	.	1a	-ri-
*	*	*Xlig	*	*	*	*
=11-	=11-	=11-	=11-	=11-	=11-	=11-
*	*	*lig	*	*	*	*
!LO:TX:t=P:problem=kreska pseudotaktowa	!	!	!	!	!LO:TX:t=P:problem=kreska pseudotaktowa	!
1G	A-	1B	.	0ryy	1g	-a
2E\	-ve	1c	.	.	1ree	.
!LO:TX:t=P:problem=kreska pseudotaktowa	!	!	!	!	!	!
2F#X\	Ma-	.	.	.	.	.
*	*	*Xlig	*	*	*	*
=12-	=12-	=12-	=12-	=12-	=12-	=12-
*	*	*lig	*	*	*	*
4G\	-ri-	1B	.	0ryy	1dd	A-
4D\	.	.	.	.	.	.
1G	.	.	.	.	.	.
.	.	1A	.	.	2cc\	-ve
*custos:G	*	*	*	*	*	*
!LO:TX:t=P:problem=kreska pseudotaktowa	!	!	!	!	!	!
2F#X\	.	.	.	.	2a\	Ma-
*	*	*Xlig	*	*	*	*
!LO:LB:g=original	!	!	!	!	!	!
=13-	=13-	=13-	=13-	=13-	=13-	=13-
!LO:TX:t=P:problem=kreska pseudotaktowa	!	!LO:TX:t=P:problem=kreska pseudotaktowa	!	!	!	!
1G	-a	1G	-a	0ryy	1b	-ri-
*	*	*lig	*	*	*	*
2rC	.	1G	gra-	.	2cc\	-a
!LO:TX:t=P:problem=kreska pseudotaktowa	!	!	!	!	!	!
2C/	a-	.	.	.	1cc\	a-
=14-	=14-	=14-	=14-	=14-	=14-	=14-
2AA/	-ve	1F	.	0ryy	.	.
!LO:TX:t=P:problem=kreska pseudotaktowa	!	!	!	!	!	!
2BB/	Ma-	.	.	.	4b\	.
!	!	!	!	!	!LO:TX:t=P:problem=kreska pseudotaktowa	!
.	.	.	.	.	4a\	.
*	*	*Xlig	*	*	*	*
*	*	*lig	*	*	*	*
4C/	-ri-	1E	.	.	1g	.
4FF/	.	.	.	.	.	.
1C/	.	.	.	.	.	.
=15-	=15-	=15-	=15-	=15-	=15-	=15-
.	.	1D	.	0ryy	2a\	.
!LO:TX:t=P:problem=kreska pseudotaktowa	!	!	!	!	!LO:TX:t=P:problem=kreska pseudotaktowa	!
2BB/	.	.	.	.	2g\	.
*	*	*Xlig	*	*	*	*
*	*	*lig	*	*	*	*
2C,/	-a	1E	.	.	2g/	-ve
*	*ij	*	*	*	*	*
!	!	!	!	!	!LO:TX:t=P:problem=kreska pseudotaktowa	!
2AA/	Ma-	.	.	.	2r	.
=16-	=16-	=16-	=16-	=16-	=16-	=16-
!LO:TX:t=P:problem=kreska pseudotaktowa	!	!	!	!	!	!
1D	-ri-	1F	.	0ryy	2dd\	gra-
.	.	.	.	.	2cc\	.
*	*Xij	*Xlig	*	*	*	*
2GG,/	-a	1G	.	.	1b	.
2G\	gra-	.	.	.	.	.
=17-	=17-	=17-	=17-	=17-	=17-	=17-
!LO:TX:t=P:problem=kreska pseudotaktowa	!	!	!	!	!	!
1Fn	.	1F	-ti-	0ryy	1a	.
*	*	*custos:A	*	*	*	*
!	!	!LO:TX:t=P:problem=kreska pseudotaktowa	!	!	!	!
1E	.	1G	-a	.	2b\	.
.	.	.	.	.	4b\	.
!	!	!	!	!	!LO:TX:t=P:problem=kreska pseudotaktowa	!
.	.	.	.	.	4cc\	.
!	!	!LO:LB:g=original	!	!	!	!
=18-	=18-	=18-	=18-	=18-	=18-	=18-
*	*	*lig	*	*	*	*
!LO:TX:t=P:problem=kreska pseudotaktowa	!	!	!	!	!	!
1D	.	1A	ple-	0ryy	4dd\	.
.	.	.	.	.	4a\	.
.	.	.	.	.	2dd\	.
2E\	.	1c	.	.	2.cc\	.
4E\	-ti-	.	.	.	.	.
!LO:TX:t=P:problem=kreska pseudotaktowa	!	!	!	!	!	!
4F#X\	-a	.	.	.	4a\	-ti-
*	*	*Xlig	*	*	*	*
=19-	=19-	=19-	=19-	=19-	=19-	=19-
*	*	*lig	*	*	*	*
4G\	ple-	1Bn	.	0ryy	2b,\	-a
4D\	.	.	.	.	.	.
*	*	*	*	*	*custos:cc	*
1G	.	.	.	.	2dd\	ple-
!	!	!	!	!	!LO:LB:g=original	!
.	.	1A	.	.	2cc\	.
!LO:TX:t=P:problem=kreska pseudotaktowa	!	!	!	!	!	!
2F#X\	.	.	.	.	2a\	.
*	*	*Xlig	*	*	*	*
=20-	=20-	=20-	=20-	=20-	=20-	=20-
*	*	*lig	*	*	*	*
2G,\	-na	1G	.	0ryy	2bn\	.
!LO:TX:t=P:problem=kreska pseudotaktowa	!	!	!	!	!	!
2C/	a-	.	.	.	2cc\	.
4D\	.	1F	.	.	2a\	.
4C\	.	.	.	.	.	.
4D\	.	.	.	.	2.dd\	.
!LO:TX:t=P:problem=kreska pseudotaktowa	!	!	!	!	!	!
4E\	.	.	.	.	.	.
*	*	*Xlig	*	*	*	*
=21-	=21-	=21-	=21-	=21-	=21-	=21-
*	*	*lig	*	*	*	*
!LO:TX:t=P:problem=kreska pseudotaktowa	!	!	!	!	!	!
1D	.	1A	-na	0ryy	.	.
.	.	.	.	.	4b\	.
.	.	.	.	.	2dd\	.
!LO:TX:t=P:problem=kreska pseudotaktowa	!	!LO:TX:t=P:problem=kreska pseudotaktowa	!	!	!LO:TX:t=P:problem=kreska pseudotaktowa	!
1G,	-ve	1G	.	.	1b	.
*	*	*Xlig	*	*	*	*
=22-	=22-	=22-	=22-	=22-	=22-	=22-
*	*	*lig	*	*	*	*
!LO:TX:t=P:problem=kreska pseudotaktowa	!	!	!	!	!	!
1rA	.	1G	Do-	0ryy	2g/	-na
.	.	.	.	.	2.dd\	Do-
(1D	Do-	1d	.	.	.	.
.	.	.	.	.	4dd\	-mi-
!	!	!	!	!	!LO:TX:t=P:problem=kreska pseudotaktowa	!
.	.	.	.	.	2dd\	-n(us)
*	*	*Xlig	*	*	*	*
=23-	=23-	=23-	=23-	=23-	=23-	=23-
*	*	*lig	*	*	*	*
2.A\)	.	1e	.	0ryy	4a\	Te-
.	.	.	.	.	4b\	.
.	.	.	.	.	4cc\	.
4A\	-mi-	.	.	.	4dd\	.
!LO:TX:t=P:problem=kreska pseudotaktowa	!	!	!	!	!	!
1A,	-n(us)	1c	.	.	1ee	.
*	*	*Xlig	*	*	*	*
=24-	=24-	=24-	=24-	=24-	=24-	=24-
*	*	*lig	*	*	*	*
(4D\	Te-	1d	.	0ryy	1ff#X	.
4E\	.	.	.	.	.	.
4Fny\	.	.	.	.	.	.
4G\)	.	.	.	.	.	.
*custos:Bn	*	*	*	*	*	*
!LO:TX:t=P:problem=kreska pseudotaktowa	!	!	!	!	!	!
1A	.	1c	.	.	1ee	.
*	*	*Xlig	*	*	*	*
!LO:LB:g=original	!	!	!	!	!	!
=25-	=25-	=25-	=25-	=25-	=25-	=25-
*	*	*lig	*	*	*	*
!LO:TX:t=P:problem=kreska pseudotaktowa	!	!	!	!	!LO:TX:t=P:problem=kreska pseudotaktowa	!
1Bn	.	1B	.	0ryy	1dd	.
.	.	.	.	.	.	.
2A\	.	1A	.	.	2cc\	.
!LO:TX:t=P:problem=kreska pseudotaktowa	!	!	!	!	!	!
2D,/	-cum	.	.	.	2dd\	.
*	*	*Xlig	*	*	*	*
=26-	=26-	=26-	=26-	=26-	=26-	=26-
*	*	*lig	*	*	*	*
2G\	Te-	1B	.	0ryy	1b	.
2E\	.	.	.	.	.	.
!	!	!LO:TX:a:t=P:problem=# above	!	!	!	!
1A	.	1c#X	.	.	[1a	-cum
*	*	*Xlig	*	*	*	*
=27-	=27-	=27-	=27-	=27-	=27-	=27-
!LO:TX:t=P:problem=kreska pseudotaktowa	!	!	!	!	!LO:TX:t=P:problem=kreska pseudotaktowa	!
1D,	-cum	1d	.	0ryy	1a]	.
!LO:TX:t=P:problem=kreska pseudotaktowa	!	!	!	!	!	!
00r	.	1cny	-mi-	.	2r	.
.	.	.	.	.	2a\	Do-
=28-	=28-	=28-	=28-	=28-	=28-	=28-
!	!	!LO:TX:t=P:problem=kreska pseudotaktowa	!	!	!	!
.	.	1d	-n(us)	0ryy	2.dd\	.
!	!	!	!	!	!LO:TX:t=P:problem=kreska pseudotaktowa	!
.	.	.	.	.	4dd\	-mi-
*	*	*lig	*	*	*	*
.	.	1d	Te-	.	2dd\	-n(us)
.	.	.	.	.	2.a\	Te-
=29-	=29-	=29-	=29-	=29-	=29-	=29-
.	.	1c	.	0ryy	.	.
.	.	.	.	.	4b\	.
.	.	.	.	.	4cc\	.
!	!	!	!	!	!LO:TX:t=P:problem=kreska pseudotaktowa	!
.	.	.	.	.	4a\	.
*	*	*Xlig	*	*	*	*
*	*	*lig	*	*	*	*
4GG/	Do-	1B	.	.	1dd	.
(4AA/	.	.	.	.	.	.
4BB/)	.	.	.	.	.	.
!LO:TX:t=P:problem=kreska pseudotaktowa	!	!	!	!	!	!
4C/	-mi-	.	.	.	.	.
=30-	=30-	=30-	=30-	=30-	=30-	=30-
!	!	!	!	!	!LO:TX:t=P:problem=kreska pseudotaktowa	!
1D	-n(us)	1A	.	0ryy	1dd	-cum
*	*	*Xlig	*	*	*	*
!	!	!	!	!	!LO:TX:t=P:problem=kreska pseudotaktowa	!
2E\	Te	1G	.	.	1ree	.
!LO:TX:t=P:problem=kreska pseudotaktowa	!	!	!	!	!	!
2C/	.	.	.	.	.	.
=31-	=31-	=31-	=31-	=31-	=31-	=31-
1D	.	1F#X	.	0ryy	2dd\	be-
.	.	.	.	.	2dd\	-ne-
!LO:TX:t=P:problem=kreska pseudotaktowa	!	!LO:TX:t=P:problem=kreska pseudotaktowa	!	!	!	!
1GG,	-cum	1G,	-cum	.	2b\	-dic-
!	!	!	!	!	!LO:TX:t=P:problem=kreska pseudotaktowa	!
.	.	.	.	.	2g\	-ta
=32-	=32-	=32-	=32-	=32-	=32-	=32-
2.G\	Be-	1G	be-	0ryy	2dd\	Tu
.	.	.	.	.	2dd\	in
!LO:TX:t=P:problem=kreska pseudotaktowa	!	!	!	!	!	!
4G\	-ne-	.	.	.	.	.
2E\	-dic-	1G	-ne-	.	2ee\	mu-
!LO:TX:t=P:problem=kreska pseudotaktowa	!	!	!	!	!	!
2C/	-ta	.	.	.	2ee\	-li-
=33-	=33-	=33-	=33-	=33-	=33-	=33-
*	*	*lig	*	*	*	*
!LO:TX:t=P:problem=kreska pseudotaktowa	!	!	!	!	!	!
1G,	Tu	1G	-di-	0ryy	2dd\	-e-
.	.	.	.	.	2dd\	-ri-
!LO:TX:t=P:problem=kreska pseudotaktowa	!	!	!	!	!LO:TX:t=P:problem=kreska pseudotaktowa	!
1r	.	1A	.	.	1cc	-b(us)
*	*	*Xlig	*	*	*	*
!	!	!	!	!	!LO:LB:g=original	!
=34-	=34-	=34-	=34-	=34-	=34-	=34-
*	*ij	*lig	*	*	*	*
!	!	!	!	!	!LO:TX:t=P:problem=kreska pseudotaktowa	!
2.C/	Be-	1E	.	0ryy	0r	.
!LO:TX:t=P:problem=kreska pseudotaktowa	!	!	!	!	!	!
4C/	-ne-	.	.	.	.	.
2AA/	-dic-	1Fny	.	.	.	.
!LO:TX:t=P:problem=kreska pseudotaktowa	!	!	!	!	!	!
2FF/	-ta	.	.	.	.	.
*	*	*Xlig	*	*	*	*
=35-	=35-	=35-	=35-	=35-	=35-	=35-
*	*	*lig	*	*	*	*
2C,/	Tu	1G	.	0ryy	2cc\	be-
*	*Xij	*	*	*	*	*
!LO:TX:t=P:problem=kreska pseudotaktowa	!	!	!	!	!	!
2C/	in	.	.	.	2cc\	-ne-
2D/	mu-	1F	.	.	2a\	-dic-
!LO:TX:t=P:problem=kreska pseudotaktowa	!	!	!	!	!LO:TX:t=P:problem=kreska pseudotaktowa	!
2D/	-li-	.	.	.	2f/	-ta
*	*	*Xlig	*	*	*	*
=36-	=36-	=36-	=36-	=36-	=36-	=36-
*	*	*lig	*	*	*	*
4C/	-e-	1E	.	0ryy	2cc\	Tu
4GG/	.	.	.	.	.	.
1C	.	.	.	.	2cc\	in
.	.	1D	.	.	2dd\	mu-
!LO:TX:t=P:problem=kreska pseudotaktowa	!	!	!	!	!	!
2BB/	-ri-	.	.	.	2dd\	-li-
*	*	*Xlig	*	*	*	*
=37-	=37-	=37-	=37-	=37-	=37-	=37-
*	*	*lig	*	*	*	*
2C,/	-bus	1E	.	0ryy	1cc	-e-
!LO:TX:t=P:problem=kreska pseudotaktowa	!	!	!	!	!	!
2E\	in	.	.	.	.	.
2F\	mu-	1F	.	.	1a	-ri-
*custos:G	*	*	*	*	*	*
!LO:TX:t=P:problem=kreska pseudotaktowa	!	!	!	!	!	!
2D\	-li-	.	.	.	.	.
*	*	*Xlig	*	*	*	*
!LO:LB:g=original	!	!	!	!	!	!
=38-	=38-	=38-	=38-	=38-	=38-	=38-
*	*	*lig	*	*	*	*
!	!	!	!	!	!LO:TX:t=P:problem=kreska pseudotaktowa	!
!	!	!	!	!	!LO:TX:a:t=P:problem=♮ above	!
2G\	-e-	1G	.	0ryy	1b	-b(us)
!LO:TX:t=P:problem=kreska pseudotaktowa	!	!	!	!	!	!
2E\	.	.	.	.	.	.
*	*	*custos:F#	*	*	*	*
!	!	!	!	!	!LO:TX:t=P:problem=kreska pseudotaktowa	!
2A\	.	1A	.	.	1ree	.
!LO:TX:t=P:problem=kreska pseudotaktowa	!	!	!	!	!	!
2F\	.	.	.	.	.	.
*	*	*Xlig	*	*	*	*
!	!	!LO:LB:g=original	!	!	!	!
=39-	=39-	=39-	=39-	=39-	=39-	=39-
2D/	.	(1F#X\	-cta	0ryy	2dd\	be-
!LO:TX:t=P:problem=kreska pseudotaktowa	!	!	!	!	!	!
2D/	-ri-	.	.	.	2dd\	-ne-
!LO:TX:t=P:problem=kreska pseudotaktowa	!	!	!	!	!	!
1GG,	-bus	1G,)	tu	.	2b\	-dic-
!	!	!	!	!	!LO:TX:t=P:problem=kreska pseudotaktowa	!
.	.	.	.	.	2g/	-ta
=40-	=40-	=40-	=40-	=40-	=40-	=40-
!	!	!LO:TX:t=P:problem=kreska pseudotaktowa	!	!	!	!
2G\	be-	1G	in	0ryy	2dd\	Tu
!LO:TX:t=P:problem=kreska pseudotaktowa	!	!	!	!	!	!
2G\	-ne-	.	.	.	2dd\	in
2E\	-dic-	1G	mu-	.	2ee\	mu-
!LO:TX:t=P:problem=kreska pseudotaktowa	!	!	!	!	!	!
2C/	-ta	.	.	.	2ee\	-li-
=41-	=41-	=41-	=41-	=41-	=41-	=41-
*	*	*lig	*	*	*	*
2G,\	Tu	1G	.	0ryy	2dd\	-e-
!LO:TX:t=P:problem=kreska pseudotaktowa	!	!	!	!	!	!
2E\	in	.	.	.	4cc\	-ri-
!	!	!	!	!	!LO:TX:t=P:problem=kreska pseudotaktowa	!
.	.	.	.	.	4b\	.
2F\	mu-	1A	.	.	2a,\	-bus
2F\	-li-	.	.	.	2a\	in
*	*	*Xlig	*	*	*	*
=42-	=42-	=42-	=42-	=42-	=42-	=42-
*	*	*lig	*	*	*	*
2C/	-e-	1c	.	0ryy	2g\	mu-
2C/	-ri-	.	.	.	2cc\	-li-
!LO:TX:t=P:problem=kreska pseudotaktowa	!	!	!	!	!	!
1GG,	-b(us)	1B	.	.	2.dd\	-e-
.	.	.	.	.	4dd\	-ri-
*	*	*Xlig	*	*	*	*
=43-	=43-	=43-	=43-	=43-	=43-	=43-
!LO:TX:t=P:problem=kreska pseudotaktowa	!	!	!	!	!LO:TX:t=P:problem=kreska pseudotaktowa	!
0r	.	1A	-li-	0ryy	1cc,	-bus
.	.	1c	-e-	.	2cc\	be-
.	.	.	.	.	2cc\	-ne-
=44-	=44-	=44-	=44-	=44-	=44-	=44-
*	*	*lig	*	*	*	*
2G\	be-	1d	.	0ryy	2bn\	-dic-
!LO:TX:t=P:problem=kreska pseudotaktowa	!	!	!	!	!	!
2G\	-ne-	.	.	.	2g/	-ta
!	!	!	!	!	!LO:TX:t=P:problem=kreska pseudotaktowa	!
2E\	-dic-	1c	.	.	1cc	Tu
!LO:TX:t=P:problem=kreska pseudotaktowa	!	!	!	!	!	!
2C/	-ta	.	.	.	.	.
*	*	*Xlig	*	*	*	*
=45-	=45-	=45-	=45-	=45-	=45-	=45-
*	*	*lig	*	*	*	*
!	!	!	!	!	!LO:TX:t=P:problem=kreska pseudotaktowa	!
2G,\	Tu	1B	.	0ryy	0r	.
!LO:TX:t=P:problem=kreska pseudotaktowa	!	!	!	!	!	!
2G\	in	.	.	.	.	.
2A\	mu-	1c	.	.	.	.
!LO:TX:t=P:problem=kreska pseudotaktowa	!	!	!	!	!	!
2A\	-li-	.	.	.	.	.
*	*	*Xlig	*	*	*	*
!	!	!	!	!	!LO:PB:g=original	!
=46-	=46-	=46-	=46-	=46-	=46-	=46-
*	*	*lig	*	*	*	*
2F\	-e-	1A	.	0ryy	2dd\	be-
!LO:TX:t=P:problem=kreska pseudotaktowa	!	!	!	!	!	!
2D/	.	.	.	.	2dd\	-ne-
4G\	.	1B	.	.	2bn\	-dic-
4F\	.	.	.	.	.	.
!	!	!	!	!	!LO:TX:t=P:problem=kreska pseudotaktowa	!
4E\	.	.	.	.	2g,/	-ta
!LO:TX:t=P:problem=kreska pseudotaktowa	!	!	!	!	!	!
4D\	.	.	.	.	.	.
*	*	*Xlig	*	*	*	*
=47-	=47-	=47-	=47-	=47-	=47-	=47-
*	*	*	*	*	*	*ij
1C	.	1A	.	0ryy	2cc\	be-
.	.	.	.	.	2cc\	-ne-
2D/	.	1A	-ri-	.	2a\	-dic-
!LO:TX:t=P:problem=kreska pseudotaktowa	!	!	!	!	!LO:TX:t=P:problem=kreska pseudotaktowa	!
2D/	-ri-	.	.	.	2f#X,/	-ta
*	*	*	*	*	*	*Xij
=48-	=48-	=48-	=48-	=48-	=48-	=48-
2GG,/	-b(us)	0.G	-bus	0ryy	2g\	Tu
!LO:TX:t=P:problem=kreska pseudotaktowa	!	!	!	!	!	!
2BB/	in	.	.	.	2g\	in
2C/	mu-	.	.	.	2cc\	mu-
!LO:TX:t=P:problem=kreska pseudotaktowa	!	!	!	!	!LO:TX:t=P:problem=kreska pseudotaktowa	!
2BB/	-li-	.	.	.	2dd\	-li-
=49-	=49-	=49-	=49-	=49-	=49-	=49-
2C/	-e-	.	.	0ryy	2cc\	-e-
*custos:GG	*	*	*	*	*	*
2C/	-ri-	.	.	.	2cc\	-ri-
!LO:LB:g=original	!	!	!	!	!	!
2GG/	-bus	0.G	.	.	2b,\	-bus
!LO:TX:t=P:problem=kreska pseudotaktowa	!	!	!	!	!LO:TX:t=P:problem=kreska pseudotaktowa	!
2r	.	.	.	.	2b\	in
=50-	=50-	=50-	=50-	=50-	=50-	=50-
!LO:TX:t=P:problem=kreska pseudotaktowa	!	!	!	!	!	!
0r	.	.	.	0ryy	2cc\	mu-
.	.	.	.	.	2b\	-li-
.	.	.	.	.	2cc\	-e-
.	.	.	.	.	2cc\	-ri-
=51-	=51-	=51-	=51-	=51-	=51-	=51-
!	!	!	!	!	!LO:TX:t=P:problem=kreska pseudotaktowa	!
2G\	be-	0.G	.	0ryy	1b	-bus
!LO:TX:t=P:problem=kreska pseudotaktowa	!	!	!	!	!	!
2G\	-ne-	.	.	.	.	.
!	!	!	!	!	!LO:TX:t=P:problem=kreska pseudotaktowa	!
2E\	-dic-	.	.	.	0r	.
!LO:TX:t=P:problem=kreska pseudotaktowa	!	!	!	!	!	!
2C/	-ta	.	.	.	.	.
=52-	=52-	=52-	=52-	=52-	=52-	=52-
2G,\	Tu	.	.	0ryy	.	.
!LO:TX:t=P:problem=kreska pseudotaktowa	!	!	!	!	!	!
2GG/	in	.	.	.	.	.
!	!	!LO:TX:t=P:problem=kreska pseudotaktowa	!	!	!	!
2C/	mu-	1G,	.	.	2gg\	be-
!LO:TX:t=P:problem=kreska pseudotaktowa	!	!	!	!	!	!
2BB/	-li-	.	.	.	2gg\	-ne-
=53-	=53-	=53-	=53-	=53-	=53-	=53-
2C/	-e-	2G/	be-	0ryy	2ee\	-dic-
!LO:TX:t=P:problem=kreska pseudotaktowa	!	!	!	!	!	!
2GG/	-ri-	2G/	-ne-	.	2dd\	-ta
2C,/	-b(us)	2E/	-dic-	.	2ee,\	Tu
!LO:TX:t=P:problem=kreska pseudotaktowa	!	!LO:TX:t=P:problem=kreska pseudotaktowa	!	!	!LO:TX:t=P:problem=kreska pseudotaktowa	!
2BB/	in	2D/	-ta	.	2b\	in
=54-	=54-	=54-	=54-	=54-	=54-	=54-
2C/	mu-	2E/	Tu	0ryy	2ee\	mu-
!LO:TX:t=P:problem=kreska pseudotaktowa	!	!	!	!	!	!
2GG/	-li-	2G/	in	.	2b\	-li-
1.C	-e-	2G/	mu-	.	1.cc	-e-
.	.	2G/	-li-	.	.	.
=55-	=55-	=55-	=55-	=55-	=55-	=55-
.	.	2G/	-e-	0.ryy	.	.
!LO:TX:t=P:problem=kreska pseudotaktowa	!	!	!	!	!	!
2C/	-ri-	2G/	-ri-	.	2cc\	-ri-
!LO:TX:b:B:t=alleluia ut supra	!	!LO:TX:b:B:t=alleluia \nut supra.	!	!	!LO:TX:b:B:t=alleluia \nut supra	!
0GGl;	-bus.	0Gl;	-bus.	.	0bl;	-bus.
==	==	==	==	==	==	==
*-	*-	*-	*-	*-	*-	*-
!!!system-decoration: [s1,s2,s3,s4]
!!!RDF**kern: l = terminal long
!!!ENC: Marta Lawrence
!!!END: 2021-03-19
!!!ENC: Berenika Jozajtis
!!!END: 2021-03-03
!!!YEC: Copyright 2022 Narodowy Instytut Fryderyka Chopina (https://polishscores.org)
!!!YEM: License CC-BY-4.0 (https://creativecommons.org/licenses/by/4.0)
